X:1
T:Title
%%score { 1 | 2 }
L:1/8
M:4/4
K:G
V:1 treble nm="Grand Piano"
V:2 bass 
V:1
 z4 z2[Q:1/4=100] G>A | B2 B2 B>A G>[DF] | E2 G2 D2 G>A | B2 B2 B>A G>B | [FA]6 G>A | %5
 B2 B2 B>A G>[DF] | E2 G2 D2 G>A | B2 [EGc]2 [DGB]>[B,DG] [CDA]>[CDA] |[M:3/4] [G,B,DG]6 | %9
[M:1/4] B>c |[M:4/4] d2 B2 [FA]3 [FB] | G2 D4 B>c | d2 B2 [^CGA]3 [CGB] |[M:3/4] [FA]6 | %14
[M:1/4] B>c |[M:4/4] d2 [Gd]2 [Gc]2 [GB]2 | [CEA]2 [EGc]4 [EG]>[^DA] | B2 G2 A3 A | %18
[M:3/4] [B,DG]6 |] %19
V:2
 z4 z2 [G,B,]>[G,C] | [G,D]2 [G,D]2 [G,D]>[G,C] [G,B,]>[B,,G,] | %2
 [C,G,C]2 [E,G,C]2 [G,B,]2[K:treble] [G,B,D]>[G,D] | [G,DG]2 [G,DG]2 [G,DG]>[G,CD] [G,B,D]>[G,DG] | %4
 [D,D]6 [G,B,]>[K:treble][G,CG] | [G,DG]2 [G,DG]2 [G,DG]>[G,CD][K:bass] [G,B,D]>[B,,G,] | %6
 [C,G,C]2 [E,G,C]2 [G,B,]2[K:treble] [G,B,D]>[G,CD] | [G,DG]2[K:bass] C,2 D,>D, D,>D, | %8
[M:3/4] G,,6 |[M:1/4][K:treble] [G,D]>[G,A,D] |[M:4/4] [G,B,G]2 [G,DG]2[K:bass] [D,C]3 [D,D] | %11
 [G,B,]2 [G,B,]4 [G,D]>[K:treble][G,A,D] | [G,B,G]2 [G,DG]2[K:bass] E,3 A,, |[M:3/4] [D,D]6 | %14
[M:1/4][K:treble] [G,G]>[G,A,G] |[M:4/4] [G,B,G]2[K:bass] [=F,B,]2 [E,G,]2 [D,G,]2 | %16
 C,2 C,4 [C,C]>[C,C] | [D,G,D]2 [D,B,D]2 [D,CD]3 [D,CD] |[M:3/4] [G,,G,]6 |] %19

